img/disert.svg

<svg width="27" height="32" viewBox="0 0 27 32" fill="none" xmlns="http://www.w3.org/2000/svg">
<path d="M15.1691 15.7922C14.7236 15.3461 14.1241 15.0962 13.4995 15.0962C12.875 15.0962 12.2754 15.3461 11.8299 15.7922C11.8299 15.7922 10.5191 17.1281 10.1455 17.4287L11.2925 32.0001H15.7164L16.8633 17.4387C16.6471 17.3185 15.1691 15.7922 15.1691 15.7922Z" fill="#FF7010"/>
<path d="M6.87511 15.642C6.45031 15.2183 5.8856 14.9714 5.29159 14.9498C4.69757 14.9282 4.11702 15.1333 3.66365 15.5251L1.36975 17.4889L3.57845 29.9496C3.67992 30.5224 3.97579 31.0407 4.41429 31.4137C4.85279 31.7868 5.40602 31.9908 5.97721 31.9902H9.9817L8.8413 17.5122C8.58242 17.4121 6.87511 15.642 6.87511 15.642Z" fill="#FF7010"/>
<path d="M12.9702 2.68013C13.1394 2.74855 13.3191 2.78586 13.5011 2.79034C13.7288 2.79599 13.9541 2.74105 14.1546 2.63095C14.3552 2.52085 14.5241 2.35938 14.6448 2.16247C14.7947 1.93544 14.8745 1.66795 14.8742 1.39432C14.8734 1.18167 14.8251 0.971984 14.7329 0.781202C14.6408 0.590421 14.5071 0.423559 14.3422 0.293291C14.1773 0.163024 13.9854 0.0727779 13.7811 0.0294094C13.5769 -0.013959 13.3656 -0.0093095 13.1633 0.0430051C12.9611 0.0953198 12.7732 0.193924 12.6139 0.331325C12.4547 0.468727 12.3283 0.641312 12.2443 0.835971C12.1602 1.03063 12.1209 1.24224 12.1291 1.45473C12.1374 1.66722 12.193 1.87499 12.2919 2.06227C12.4455 2.33837 12.6838 2.55543 12.9702 2.68013Z" fill="#FF7010"/>
<path d="M21.4085 8.51155L21.0349 8.42137L20.9432 8.04064C20.3566 5.7028 18.2691 3.80247 15.5656 3.15455C15.3205 3.47119 15.0054 3.72429 14.6461 3.8932C14.2867 4.0621 13.8933 4.14201 13.4978 4.12642C12.4 4.12642 11.4923 3.20799 11.4399 3.14453C8.73964 3.79245 6.65219 5.67274 6.06889 8.02394L5.98041 8.42137L5.60356 8.52157C4.02549 8.94102 2.66492 9.96041 1.80134 11.3704C0.937753 12.7803 0.636712 14.4737 0.960051 16.1029L2.81811 14.5098C3.52019 13.9041 4.41865 13.5869 5.33793 13.6202C6.25721 13.6536 7.13127 14.0351 7.78931 14.6901L9.42781 16.3066L10.9287 14.8271C11.2652 14.4835 11.666 14.2125 12.1074 14.03C12.5488 13.8476 13.0216 13.7575 13.4978 13.765C14.4652 13.7713 15.3923 14.1605 16.0834 14.8504L17.5515 16.3133L19.226 14.6734C19.8848 14.0249 20.7565 13.6488 21.6719 13.6179C22.5873 13.587 23.4814 13.9037 24.1808 14.5064L26.0356 16.1029C26.3649 14.4743 26.0685 12.7791 25.2076 11.3667C24.3467 9.95432 22.9869 8.93237 21.4085 8.51155Z" fill="#FF7010"/>
<path d="M20.1338 15.6216C20.1338 15.6216 18.3708 17.405 18.1676 17.4852L17.0239 31.9898H21.035C21.6062 31.9904 22.1594 31.7864 22.5979 31.4134C23.0364 31.0403 23.3323 30.5221 23.4337 29.9492L24.5315 23.7573L25.6228 17.4885L23.3289 15.5147C22.8774 15.1271 22.3012 14.9235 21.7112 14.9432C21.1212 14.9629 20.5593 15.2046 20.1338 15.6216Z" fill="#FF7010"/>
</svg>

<svg width="27" height="32" fill="none" xmlns="http://www.w3.org/2000/svg"><path d="M15.17 15.792a2.36 2.36 0 0 0-1.67-.696 2.36 2.36 0 0 0-1.67.696s-1.31 1.336-1.684 1.637L11.291 32h4.424l1.147-14.561c-.216-.12-1.694-1.647-1.694-1.647ZM6.875 15.642a2.364 2.364 0 0 0-1.583-.692 2.358 2.358 0 0 0-1.628.575L1.37 17.49l2.208 12.46c.102.573.398 1.092.836 1.465.439.373.992.577 1.563.576h4.005l-1.14-14.478c-.26-.1-1.967-1.87-1.967-1.87ZM12.97 2.68c.17.069.35.106.531.11.228.006.453-.049.654-.16.2-.11.37-.27.49-.468a1.392 1.392 0 0 0 .088-1.38 1.394 1.394 0 0 0-.39-.489 1.361 1.361 0 0 0-1.18-.25c-.202.052-.39.15-.55.288a1.422 1.422 0 0 0-.322 1.73c.154.277.393.494.68.62Z" fill="#FF7010"/><path d="m21.409 8.512-.374-.09-.092-.381c-.586-2.338-2.674-4.239-5.377-4.886-.246.316-.56.57-.92.738a2.47 2.47 0 0 1-1.148.233c-1.098 0-2.006-.918-2.058-.981-2.7.647-4.788 2.528-5.371 4.879l-.089.397-.376.1a6.39 6.39 0 0 0-3.803 2.85 6.607 6.607 0 0 0-.84 4.732l1.857-1.593a3.654 3.654 0 0 1 2.52-.89c.92.034 1.793.415 2.451 1.07l1.639 1.617 1.5-1.48a3.547 3.547 0 0 1 1.18-.797 3.495 3.495 0 0 1 1.39-.265 3.693 3.693 0 0 1 2.585 1.085l1.469 1.463 1.674-1.64a3.663 3.663 0 0 1 2.446-1.055c.915-.031 1.81.286 2.509.888l1.855 1.597a6.597 6.597 0 0 0-.828-4.736 6.381 6.381 0 0 0-3.8-2.855Z" fill="#FF7010"/><path d="M20.134 15.622s-1.763 1.783-1.966 1.863L17.024 31.99h4.011c.571 0 1.124-.204 1.563-.577.438-.373.734-.89.836-1.464l1.098-6.192 1.09-6.269-2.293-1.973a2.362 2.362 0 0 0-1.618-.572c-.59.02-1.152.262-1.577.679Z" fill="#FF7010"/></svg>
